icons/white/thor.svg

<?xml version="1.0" encoding="UTF-8"?><svg id="a" xmlns="http://www.w3.org/2000/svg" viewBox="0 0 48 48"><defs><style>.b{fill:none;stroke:#fff;stroke-linecap:round;stroke-linejoin:round;}</style></defs><path class="b" d="M7.5,22.1904v-1.3838h6.3867v1.3838"/><path class="b" d="M10.6934,20.8066v6.0674"/><path class="b" d="M9.416,27.1934h2.5547"/><path class="b" d="M16.2285,20.8066h1.3838v6.0674h-1.3838"/><path class="b" d="M17.6123,24h4.6836"/><path class="b" d="M23.6797,20.8066h-1.3838v6.0674h1.3838"/><ellipse class="b" cx="28.7358" cy="24" rx="3.2998" ry="2.9805"/><path class="b" d="M35.0236,27.1934v-6.0674M33.7463,21.126h4.6542c2.0951,0,2.0055,2.9805,0,2.9805h-3.3769"/><path class="b" d="M37.8389,24.1064l1.5967,3.0869h1.0645"/><path class="b" d="M33.9592,27.1934h2.5547"/><path class="b" d="M43.5,35.5V12.5c0-2.2091-1.7909-4-4-4H8.5c-2.2091,0-4,1.7909-4,4v23c0,2.2091,1.7909,4,4,4h31c2.2091,0,4-1.7909,4-4Z"/></svg>

<svg xmlns="http://www.w3.org/2000/svg" viewBox="0 0 48 48"><defs><style>.a{fill:none;stroke:#fff;stroke-linecap:round;stroke-linejoin:round;}</style></defs><path class="a" d="M7.5,22.19V20.8066h6.3867V22.19"/><path class="a" d="M10.6934,20.8066V26.874"/><path class="a" d="M9.416,27.1934h2.5547"/><path class="a" d="M16.2285,20.8066h1.3838V26.874H16.2285"/><path class="a" d="M17.6123,24h4.6836"/><path class="a" d="M23.68,20.8066H22.2959V26.874H23.68"/><ellipse class="a" cx="28.7358" cy="24" rx="3.2998" ry="2.9805"/><path class="a" d="M35.0236,27.1934V21.126m-1.2773,0h4.6542a1.4909,1.4909,0,1,1,0,2.98H35.0236"/><path class="a" d="M37.8389,24.1064l1.5966,3.087H40.5"/><path class="a" d="M33.9592,27.1934h2.5546"/><path class="a" d="M43.5,37.5v-27a2,2,0,0,0-2-2H6.5a2,2,0,0,0-2,2v27a2,2,0,0,0,2,2h35A2,2,0,0,0,43.5,37.5Z"/></svg>
